X: 41870
T: Viva La Quinta Brigada
R: barndance
M: 4/4
K: Cmajor
G|G3/2 G/ G A|G3/2 E/ F E|D C3-|C3|B|c c c c|d c2 G|A4|
z2 z|G|c c B c|d c c B|A2 D2|z2 z|G|G2 D E|F2 E D|C4-|C2 z G|
G3/2 G/ G|A|G F F D|D2 C2|z2 z G|c c B c|d c c F|
A4|z2 A B|c c B c|d c c B|A2 D2|z2 z G|G2 D E|
F3/2 F/ E D|C4-|C4|c2 c c|c2 d c|c A3-|A2 A A|c c c3/2 B/|
B B B A|G4|z2 z G|c c c c|d3/2 c/ c c/d/|e A3-|A4|F F F G|E E D D|C4-|C4|

